src/assets/img/javascriptIcon.svg

<svg width="61" height="60" viewBox="0 0 61 60" fill="none" xmlns="http://www.w3.org/2000/svg">
<path d="M0.357422 0C20.3709 0 40.3439 0 60.3574 0C60.3574 20.0135 60.3574 40.027 60.3574 60C40.3844 60 20.3709 60 0.357422 60C0.357422 39.946 0.357422 19.973 0.357422 0ZM54.0374 31.7623C52.822 29.5746 51.1609 28.0756 48.7707 27.549C47.0691 27.1438 45.3675 27.1438 43.666 27.5084C38.1562 28.6428 35.8064 35.287 39.3716 39.7029C40.6275 41.2424 42.2885 42.1742 44.0306 42.9845C45.5701 43.7137 47.1501 44.4024 48.6896 45.1722C49.743 45.6988 50.1886 46.6712 50.0671 47.846C49.9455 49.0209 49.1353 49.6691 48.1224 50.0338C45.8537 50.844 43.2203 50.1148 41.6808 48.2107C41.3567 47.8055 41.0326 47.3599 40.7085 46.9142C39.169 47.8055 37.67 48.6563 36.1711 49.5476C37.1029 51.3707 38.3993 52.8292 40.1819 53.8015C43.2203 55.4625 46.4209 55.7056 49.7025 54.8953C51.8497 54.3687 53.6727 53.2748 54.8071 51.2897C56.9138 47.5219 55.6984 42.8224 51.9712 40.5132C50.3102 39.5003 48.4465 38.8116 46.7045 37.9203C45.8537 37.4747 44.9624 37.0695 44.2332 36.5024C42.9368 35.449 43.1798 33.3423 44.6383 32.5321C46.0563 31.7218 48.0414 32.208 49.1353 33.6259C49.3783 33.9095 49.5404 34.2336 49.7835 34.5577C51.1609 33.6259 52.5789 32.6941 54.0374 31.7623ZM16.1576 50.1553C16.9678 51.8974 18.1427 53.2748 19.8037 54.1661C21.9509 55.341 24.3007 55.5435 26.691 55.1789C28.8382 54.8548 30.6208 53.8825 31.7956 51.9379C32.768 50.3173 33.0515 48.5348 33.0515 46.6306C33.0515 40.4726 33.0515 34.3147 33.0515 28.1566C33.0515 27.9946 33.0515 27.792 33.0515 27.5895C31.1474 27.5895 29.3243 27.5895 27.4202 27.5895C27.4202 27.8325 27.4202 28.0351 27.4202 28.2782C27.4202 34.3552 27.4202 40.3916 27.4202 46.4686C27.4202 47.0358 27.3797 47.6435 27.2987 48.2107C27.1366 49.1425 26.6505 49.8312 25.7187 50.1148C23.9766 50.6415 22.5586 50.1148 21.5458 48.6158C21.3027 48.2107 21.0596 47.8055 20.7761 47.4004C19.196 48.3322 17.6971 49.2235 16.1576 50.1553Z" fill="white"/>
</svg>

<svg width="61" height="60" fill="none" xmlns="http://www.w3.org/2000/svg"><path d="M.357 0h60v60h-60V0Zm53.68 31.762c-1.215-2.187-2.876-3.686-5.266-4.213a11.429 11.429 0 0 0-5.105-.04c-5.51 1.134-7.86 7.778-4.294 12.194 1.255 1.54 2.916 2.471 4.659 3.281 1.54.73 3.12 1.418 4.659 2.188 1.053.527 1.499 1.5 1.377 2.674-.121 1.175-.932 1.823-1.945 2.188-2.268.81-4.902.08-6.441-1.823-.324-.405-.648-.851-.972-1.297-1.54.892-3.039 1.742-4.538 2.634.932 1.823 2.228 3.281 4.01 4.253 3.04 1.661 6.24 1.905 9.522 1.094 2.147-.526 3.97-1.62 5.104-3.605 2.107-3.768.891-8.468-2.836-10.777-1.66-1.013-3.524-1.701-5.266-2.593-.851-.445-1.743-.85-2.472-1.418-1.296-1.053-1.053-3.16.405-3.97 1.418-.81 3.403-.324 4.497 1.094.243.284.405.608.648.932a193.905 193.905 0 0 1 4.254-2.796Zm-37.88 18.393c.81 1.742 1.986 3.12 3.647 4.011 2.147 1.175 4.497 1.378 6.887 1.013 2.147-.324 3.93-1.297 5.105-3.241.972-1.62 1.255-3.403 1.255-5.307V27.59h-5.63v18.878c0 .568-.041 1.175-.122 1.743-.162.931-.648 1.62-1.58 1.904-1.742.526-3.16 0-4.173-1.5-.243-.404-.486-.81-.77-1.215-1.58.932-3.079 1.824-4.618 2.755Z" fill="#fff"/></svg>
